gtk/icon/16x16/apps/hipchat.svg

<svg xmlns="http://www.w3.org/2000/svg" width="16" height="16" version="1">
 <rect width="15" height="15" x="-15" y="-15" rx="4.8" ry="4.8" transform="matrix(0,-1,-1,0,0,0)" style="fill:#2a5083"/>
 <g transform="translate(-0.5,-0.50822868)">
  <path d="m 8,3.5078 c -2.4569,0 -4.5,1.9381 -4.5,4.2832 0,2.3451 2.0431,4.2168 4.5,4.2168 h 10e-4 c 0.34445,-7.5e-4 0.68262,-0.06669 1.0176,-0.14062 0.69085,0.45448 1.5342,0.76517 2.4922,0.59277 0.43904,-0.07979 0.61467,-0.51435 0.30859,-0.83887 -0.327,-0.346 -0.537,-0.562 -0.547,-1.023 0.749,-0.7689 1.227,-1.7485 1.228,-2.807 0,-2.3451 -2.043,-4.2832 -4.5,-4.2832 z m 0,1 c 1.9306,0 3.4994,1.5183 3.5,3.2822 -7.5e-4,0.75831 -0.34262,1.4927 -0.94336,2.1094 a 1.0001,1.0001 0 0 0 -0.28418,0.71973 c 0.0063,0.29361 0.11987,0.56498 0.2334,0.81836 -0.323,-0.074 -0.6345,-0.205 -0.9386,-0.405 a 1.0001,1.0001 0 0 0 -0.7647,-0.141 c -0.3184,0.07 -0.5844,0.116 -0.8027,0.117 -1.9492,0 -3.5,-1.4525 -3.5,-3.2168 -5e-7,-1.7643 1.5691,-3.2832 3.5,-3.2832 z" style="fill:#ffffff"/>
  <path d="M 6.5,9 C 6.5,9 7.3,9.5 8,9.5 8.7,9.5 9.5,9 9.5,9" style="fill:none;stroke:#ffffff;stroke-linecap:round;stroke-linejoin:round"/>
 </g>
</svg>

<svg xmlns="http://www.w3.org/2000/svg" width="16" height="16" version="1">
 <rect style="fill:#2a5083" width="15" height="15" x="1" y="1" rx="4.8" ry="4.8"/>
 <g transform="translate(0.5,0.49177)">
  <path style="fill:#ffffff" d="M 8,3.5078 C 5.5431,3.5078 3.5,5.4459 3.5,7.791 3.5,10.136 5.5431,12.008 8,12.008 H 8.001 C 8.3454,12.007 8.6836,11.941 9.0186,11.867 9.7094,12.322 10.553,12.632 11.511,12.46 11.95,12.38 12.125,11.946 11.819,11.621 11.492,11.275 11.282,11.059 11.272,10.598 12.021,9.8292 12.499,8.8496 12.5,7.7911 12.5,5.446 10.457,3.5079 8.0004,3.5079 Z M 8,4.5078 C 9.9306,4.5078 11.499,6.0261 11.5,7.79 11.499,8.5483 11.157,9.2827 10.557,9.8994 A 1.0001,1.0001 0 0 0 10.272,10.619 C 10.279,10.913 10.392,11.184 10.506,11.437 10.183,11.363 9.8714,11.232 9.5673,11.032 A 1.0001,1.0001 0 0 0 8.8026,10.891 C 8.4842,10.961 8.2182,11.007 7.9999,11.008 6.0507,11.008 4.4999,9.556 4.4999,7.7917 4.4999,6.0274 6.069,4.5085 7.9999,4.5085 Z"/>
  <path style="fill:none;stroke:#ffffff;stroke-linecap:round;stroke-linejoin:round" d="M 6.5,9 C 6.5,9 7.3,9.5 8,9.5 8.7,9.5 9.5,9 9.5,9"/>
 </g>
</svg>
